img/melon03.svg

<svg width="279" height="226" viewBox="0 0 279 226" fill="none" xmlns="http://www.w3.org/2000/svg">
<path d="M23.5 113C24.1015 54.4212 82.5 18.5 140 18.5C197.5 18.5 255.5 58 255.5 113.5C255.5 169 198.651 209.275 140 209.5C80.9234 209.727 22.8934 172.074 23.5 113Z" fill="url(#paint0_radial)"/>
<path d="M45 58.9565C83.5179 42.1746 91 35.3739 140 33.9C189 32.4261 233 58.9565 233 58.9565C159.085 42.5901 117.927 42.8179 45 58.9565Z" fill="#398639"/>
<path d="M28 88.4349C108 72.713 165.5 71.7304 251 88.4349C251 88.4349 194.5 62.3956 140 62.3956C85.5 62.3956 28 88.4349 28 88.4349Z" fill="#398639"/>
<path d="M23.5 113C128.5 92.8565 187 99.2435 255.5 113C163.359 129.726 112.555 129.729 23.5 113Z" fill="#398639"/>
<path d="M27.5 138.548C115.024 154.541 163.959 154.566 251 138.548C163.715 173.461 114.781 173.405 27.5 138.548Z" fill="#398639"/>
<path d="M45 169.009C116 186.696 166.237 185.438 233 169.009C160.826 203.723 119.657 203.464 45 169.009Z" fill="#398639"/>
<defs>
<radialGradient id="paint0_radial" cx="0" cy="0" r="1" gradientUnits="userSpaceOnUse" gradientTransform="translate(139.498 114) rotate(90) scale(95.5005 116.002)">
<stop offset="0.441989" stop-color="#8FCB58"/>
<stop offset="1" stop-color="#69C64C"/>
</radialGradient>
</defs>
</svg>

<svg width="279" height="226" fill="none" xmlns="http://www.w3.org/2000/svg"><path d="M23.5 113c.602-58.579 59-94.5 116.5-94.5s115.5 39.5 115.5 95-56.849 95.775-115.5 96c-59.077.227-117.107-37.426-116.5-96.5z" fill="url(#paint0_radial)"/><path d="M45 58.956C83.518 42.175 91 35.374 140 33.9c49-1.474 93 25.056 93 25.056-73.915-16.366-115.073-16.138-188 0zM28 88.435c80-15.722 137.5-16.705 223 0 0 0-56.5-26.04-111-26.04S28 88.436 28 88.436zM23.5 113c105-20.144 163.5-13.757 232 0-92.141 16.726-142.945 16.729-232 0zm4 25.548c87.524 15.993 136.459 16.018 223.5 0-87.285 34.913-136.219 34.857-223.5 0z" fill="#398639"/><path d="M45 169.009c71 17.687 121.237 16.429 188 0-72.174 34.714-113.343 34.455-188 0z" fill="#398639"/><defs><radialGradient id="paint0_radial" cx="0" cy="0" r="1" gradientUnits="userSpaceOnUse" gradientTransform="matrix(0 95.5005 -116.002 0 139.498 114)"><stop offset=".442" stop-color="#8FCB58"/><stop offset="1" stop-color="#69C64C"/></radialGradient></defs></svg>
